X:1
T:F Major Daniel Belknap, 1797
T:Isaac Watts, 1719 (Psalm 104)     88. 88. 88.
T:Syria
T:Transcribed from The Harmonist's Companion, 1797.
%%score [ 1 2 3 4 ]
L:1/8
M:4/4
K:F
V:1 treble nm="Treble" snm="Tr"
V:2 treble nm="Counter" snm="C"
V:3 treble-8 nm="Tenor" snm="T"
V:4 bass nm="Bass" snm="B"
V:1
 c4 | (c>B cd c2) c2 | f2 f2 d2 c2 | c6 c2 | f2 f2 c2 c2 | (B2 d2 c2) f2 | (e3 d c2) A2 | %7
 d2 d2 d2 e2 | f2 e2 d2"^They spring on hills, and drench the" e2 | f3 d c2 A2 | c4 c4 | c8 | z8 | %13
"^From pleasant trees which shade the brink," c4 A2 A2 | B3 G FG A2 | %15
 B3"^The  lark and linnet light to drink:" B AG AB | c2 f2 e3 d | c4 z2 f2 | f6 f2 | f2 c2 d2 c2 | %20
 c6 c2 | f3 d e2 f2 | (e2 d2 c2) c2 | c8 |] %24
V:2
"^1. The  swelling   billows know their bound,     And  in their channels walk  their round;  Yet thence conveyed by secret veins," F4 | %1
 F6 F2 | A2 A2 B2 G2 | A6 A2 | F2 F2 A2 A2 | F6 A2 | G6 E2 | F2 A2 F2 G2 | A2 G2 F2 G2 | %9
 A3 G F2 F2 | F4 [EG]4 |"^plains." [FA]8 | z8 | z8 | z8 | z8 | z8 | %17
 z4 z2"^Their  songs   the  lark  and  linnet  raise,  And chide our  silence in his praise." F2 | %18
 A6 A2 | A2 A2 B2 G2 | A6 A2 | F3 G A2 A2 | (A2 G2 F2) G2 | A8 |] %24
V:3
 c4 | (A>G AB c2) c2 | A2 c2 f2 e2 | f6 c2 | d2 c2 f2 c2 | (d2 B2 A>G) AB | c6 c2 | f2 f2 f2 c2 | %8
 A>B c2 d2 B2 | A3 B c2 f2 | A4 G4 | F8 | z8 | z8 | z8 | z8 | z8 | z4 z2 c2 | c6 c2 | f2 f2 d2 e2 | %20
 f6 c2 | d3 d c2 f2 | (c2 B2 A2) G2 | F8 |] %24
V:4
 F,4 | F,6 F,2 | F,2 F,2 B,,2 C,2 | F,6 F,2 | D,2 F,2 F,2 A,2 | (B,2 G,2 A,2) F,2 | C,6 C,2 | %7
 D,2 D,2 C,2 D,2 | F,>G, A,2 B,2 G,2 | F,3 G, A,2 F,2 | C4 C,4 | F,8 | z8 | z8 | z8 | z8 | z8 | %17
 z4 z2 F,2 | F,6 F,2 | D,2 F,2 B,2 C2 | F,6 A,2 | B,3 B, A,2 F,2 | (A,2 B,2 C2) C,2 | F,8 |] %24

